X:1
T:John Barleycorn
M:4/4
L:1/8
K:C
E-G| G2G-F D2 D2| F2 FG A2G-F| G2 F2 D2 D2| D6A-G| G2G-F D2 DE| F2 G2 A2G-F|\
 G2G-F D2 D2| D6D-E| F2 G2A-Bc-A| dd d2 d2A-B| c2 c2 d2 G2| A6B-A|\
 G2G-F D2 DE| F2 G2 A2G-F| G2G-F D2 D2| D6||
